assets/icons/logo-colored.svg

<svg width="135" height="47" viewBox="0 0 135 47" fill="none" xmlns="http://www.w3.org/2000/svg">
<g clip-path="url(#clip0_23_4728)">
<path d="M20.831 20.9918L18.1901 18.3615V36.2254L14.3788 32.4293V14.5654L9.09699 9.30487V27.1688L5.28665 23.3727V5.50984L0.00488281 0.249268V25.5527L20.831 46.2951L23.4719 43.6521V25.802L32.565 16.7444L36.3753 12.9493V30.7125L41.6571 25.4519V0.249268L20.831 20.9918Z" fill="#4579F5"/>
<path d="M26.2471 29.1448L27.284 29.1454V39.8376L32.5657 34.5515V22.8515L26.2471 29.1448Z" fill="#FF7E42"/>
<path d="M65.2124 5.61255H68.4108V20.2852H51.2803V5.61255H54.4791V17.3294H58.2884V5.61255H61.4031V17.3294H65.2124V5.61255Z" fill="#333333"/>
<path d="M84.0688 20.285H80.1754L74.9773 13.1162V20.285H71.7784V5.61246H74.9773V12.3829L79.7966 5.61246H83.5218L78.4915 12.6344L84.0688 20.285Z" fill="#333333"/>
<path d="M91.7502 17.602C92.6199 17.602 93.4055 17.4031 94.1073 17.0046C94.8087 16.6067 95.3597 16.0512 95.7592 15.3381C96.1593 14.6256 96.3595 13.8292 96.3595 12.949C96.3595 11.6212 95.9208 10.5141 95.0443 9.62664C94.1668 8.73922 93.0727 8.29552 91.7608 8.29552C90.449 8.29552 89.3475 8.73922 88.4565 9.62664C87.566 10.5141 87.1205 11.6212 87.1205 12.949C87.1205 14.2763 87.566 15.3839 88.4565 16.2709C89.3475 17.1588 90.4456 17.602 91.7502 17.602ZM91.7502 20.5992C89.5052 20.5992 87.6361 19.8698 86.1414 18.409C84.6472 16.9492 83.9003 15.1286 83.9003 12.949C83.9003 10.769 84.6472 8.9488 86.1414 7.4885C87.6361 6.02874 89.5052 5.29785 91.7502 5.29785C93.2231 5.29785 94.5596 5.63028 95.7592 6.29372C96.9589 6.95762 97.8959 7.87298 98.5687 9.03986C99.2425 10.2067 99.5787 11.5099 99.5787 12.949C99.5787 15.143 98.8352 16.9666 97.3483 18.4196C95.8608 19.8731 93.9951 20.5992 91.7502 20.5992Z" fill="#333333"/>
<path d="M104.336 5.61255H114.121V20.2852H110.944V8.56826H107.114L106.419 14.9191C106.222 16.7359 105.7 18.0911 104.851 18.9853C104.002 19.88 102.806 20.327 101.263 20.327H100.442V17.2249H101.284C102.42 17.2249 103.073 16.5056 103.241 15.066L104.336 5.61255Z" fill="#333333"/>
<path d="M123.297 9.49025L121.382 14.7306H125.233L123.297 9.49025ZM127.275 20.285L126.244 17.4974H120.372L119.362 20.285H115.994L121.761 5.6124H124.77L130.726 20.285H127.275Z" fill="#333333"/>
<path d="M51.2803 26.5732H62.7498V41.2458H59.5718V29.5285H54.4791V41.2458H51.2803V26.5732Z" fill="#333333"/>
<path d="M69.316 38.2905H75.1879V41.2457H66.1172V26.5731H74.9562V29.5076H69.316V32.4002H74.4087V35.2717H69.316V38.2905Z" fill="#333333"/>
<path d="M83.4159 33.7207C84.0471 33.7207 84.5555 33.5251 84.942 33.1339C85.327 32.7427 85.5205 32.2397 85.5205 31.6245C85.5205 31.0102 85.327 30.5034 84.942 30.1054C84.5555 29.707 84.0471 29.5075 83.4159 29.5075H81.0795V33.7207H83.4159ZM83.5421 26.5735C85.0291 26.5735 86.2713 27.0524 87.2673 28.0092C88.2632 28.966 88.7615 30.1681 88.7615 31.6144C88.7615 33.0607 88.2632 34.2627 87.2673 35.2195C86.2713 36.1768 85.0291 36.6557 83.5421 36.6557H81.0795V41.2456H77.8811V26.5735H83.5421Z" fill="#333333"/>
<path d="M96.9263 38.3324C97.4453 38.3324 97.8661 38.1783 98.1893 37.8709C98.5119 37.564 98.673 37.1656 98.673 36.6766C98.673 36.2015 98.5119 35.8103 98.1893 35.5025C97.8661 35.1956 97.4453 35.0414 96.9263 35.0414H94.1067V38.3324H96.9263ZM98.3992 30.8494C98.3992 30.6119 98.361 30.3985 98.2836 30.2101C98.2067 30.0213 98.0979 29.857 97.9576 29.7173C97.8173 29.5775 97.6451 29.4696 97.4419 29.3925C97.2388 29.3155 97.0104 29.2774 96.7584 29.2774H94.1067V32.4003H96.7584C97.2634 32.4003 97.663 32.2572 97.9576 31.9706C98.2522 31.6844 98.3992 31.3105 98.3992 30.8494ZM99.8306 33.5113C100.476 33.8466 100.977 34.3182 101.335 34.9263C101.693 35.5338 101.872 36.229 101.872 37.0119C101.872 38.1855 101.42 39.1847 100.515 40.009C99.61 40.8338 98.5187 41.2458 97.2421 41.2458H90.9707V26.5732H97.0738C98.3368 26.5732 99.3889 26.9331 100.231 27.6524C101.072 28.3726 101.494 29.2702 101.494 30.3465C101.494 30.9752 101.346 31.5692 101.051 32.1276C100.757 32.687 100.35 33.148 99.8306 33.5113Z" fill="#333333"/>
<path d="M117.025 26.5732H120.224V41.2457H117.025V26.5732ZM109.975 38.2693C110.648 38.2693 111.199 38.0703 111.627 37.6719C112.055 37.2735 112.269 36.7604 112.269 36.1317C112.269 35.7125 112.174 35.342 111.985 35.0207C111.795 34.6993 111.525 34.4478 111.175 34.2657C110.824 34.0846 110.424 33.9935 109.975 33.9935H107.681V38.2693H109.975ZM110.207 31.0171C111.231 31.0171 112.146 31.2339 112.953 31.6665C113.76 32.1001 114.391 32.7043 114.847 33.4795C115.303 34.2556 115.531 35.1392 115.531 36.1317C115.531 37.6266 115.033 38.8527 114.036 39.81C113.04 40.7674 111.764 41.2457 110.207 41.2457H104.482V26.5732H107.681V31.0171H110.207Z" fill="#333333"/>
<path d="M134.997 41.2458H131.42L128.516 36.2155L125.569 41.2458H121.991L126.579 33.5532L122.286 26.5732H125.864L128.494 31.1004L131.146 26.5732H134.64L130.41 33.6577L134.997 41.2458Z" fill="#333333"/>
</g>
<defs>
<clipPath id="clip0_23_4728">
<rect width="135" height="46" fill="white" transform="translate(0 0.27182)"/>
</clipPath>
</defs>
</svg>

<svg xmlns="http://www.w3.org/2000/svg" width="135" height="47" fill="none" viewBox="0 0 135 47"><g clip-path="url(#a)"><path fill="#4579F5" d="m20.831 20.992-2.64-2.63v17.863l-3.812-3.796V14.565l-5.282-5.26v17.864l-3.81-3.796V5.51L.005.25v25.303L20.83 46.295l2.64-2.643v-17.85l9.094-9.058 3.81-3.795v17.763l5.282-5.26V.249z"/><path fill="#FF7E42" d="M26.247 29.145h1.037v10.693l5.282-5.287v-11.7z"/><path fill="#333" d="M65.212 5.613h3.199v14.672H51.28V5.613h3.198v11.716h3.81V5.613h3.114v11.716h3.81zm18.857 14.672h-3.894l-5.198-7.169v7.169h-3.199V5.612h3.2v6.77l4.819-6.77h3.725l-5.03 7.022z"/><path fill="#333" d="M91.75 17.602q1.305 0 2.357-.597a4.3 4.3 0 0 0 1.652-1.667q.6-1.069.6-2.389 0-1.992-1.315-3.322t-3.283-1.331-3.304 1.33-1.336 3.323 1.336 3.322 3.293 1.331m0 2.997q-3.367 0-5.609-2.19-2.24-2.19-2.24-5.46t2.24-5.46 5.61-2.191q2.209 0 4.008.996a7.2 7.2 0 0 1 2.81 2.746q1.01 1.75 1.01 3.909 0 3.292-2.23 5.47-2.232 2.18-5.599 2.18m12.586-14.986h9.785v14.672h-3.177V8.568h-3.83l-.695 6.351q-.295 2.725-1.568 4.066-1.274 1.342-3.588 1.342h-.821v-3.102h.842q1.705 0 1.957-2.159zm18.961 3.877-1.915 5.24h3.851zm3.978 10.795-1.031-2.788h-5.872l-1.01 2.788h-3.368l5.767-14.673h3.009l5.956 14.673zM51.28 26.573h11.47v14.673h-3.178V29.528h-5.093v11.718H51.28zM69.316 38.29h5.872v2.956h-9.07V26.573h8.838v2.935h-5.64V32.4h5.093v2.872h-5.093zm14.1-4.57q.947 0 1.526-.586.578-.586.579-1.51 0-.92-.579-1.519-.58-.598-1.526-.598h-2.337v4.214zm.126-7.146q2.231 0 3.725 1.435 1.495 1.437 1.495 3.605 0 2.17-1.495 3.605-1.494 1.437-3.725 1.437H81.08v4.59h-3.198V26.573zm13.384 11.758q.78 0 1.263-.461.484-.46.484-1.194 0-.713-.484-1.175-.484-.46-1.263-.46h-2.82v3.29zM98.4 30.85q0-.356-.115-.639a1.5 1.5 0 0 0-.326-.493 1.45 1.45 0 0 0-.516-.325 1.9 1.9 0 0 0-.684-.115h-2.651V32.4h2.651q.757 0 1.2-.43.441-.43.441-1.12m1.432 2.662a3.67 3.67 0 0 1 1.504 1.415q.537.912.537 2.086 0 1.76-1.357 2.997-1.358 1.237-3.273 1.237h-6.271V26.573h6.103q1.894 0 3.157 1.08 1.262 1.08 1.263 2.694a3.76 3.76 0 0 1-.443 1.78 3.85 3.85 0 0 1-1.22 1.384m17.193-6.938h3.199v14.673h-3.199zm-7.05 11.696q1.01 0 1.652-.597.642-.598.642-1.54 0-.63-.284-1.111a2 2 0 0 0-.81-.755 2.6 2.6 0 0 0-1.2-.273h-2.294v4.276zm.232-7.252q1.536 0 2.746.65a4.77 4.77 0 0 1 1.894 1.813q.684 1.164.684 2.652 0 2.242-1.495 3.678-1.494 1.436-3.829 1.436h-5.725V26.573h3.199v4.444zm24.79 10.229h-3.577l-2.904-5.03-2.947 5.03h-3.578l4.588-7.693-4.293-6.98h3.578l2.63 4.527 2.652-4.527h3.494l-4.23 7.085z"/></g><defs><clipPath id="a"><path fill="#fff" d="M0 .272h135v46H0z"/></clipPath></defs></svg>
